X: 661
T: Estergon Kal`ası
C: (Anonim)
O: Turkey
F: http://compmusic.upf.edu/node/140
N: hicaz-humayun--turku--aksak--estergon_kalasi--
N: makam= hicaz-humayun
N: form= turku
N: usul= aksak = 9/8
M: 9/8
L: 1/16
K: C _7/8B ^c  
Q: 1/4=162
%%MIDI tuningsystem comma53
z4 ^F2G2 A4 a6 | ag2agf fgfe dedc BAB2  | 
w:   |   | 
d4 dcBc BAA2 A6 | B3/2A/ B2z4z4z4z2  | \
w:   |   | 
z4 ^F2G2 A4 a6 | 
w:   | 
ag2agf fgfe dedc BAB2  | d4 dcBc BAA2 A6 | 
w:   |   | 
A18  | z4 ^F2G2 A4 a6 | ag2agf fgfe dedc BAB2  | 
w:   |   |   | 
d4 dcBc BAA2 A6 | B3/2A/ B2z4z4z4z2  | \
w:   |   | 
z4 ^F2G2 A4 a6 | 
w:   | 
ag2agf fgfe dedc BAB2  | d4 dcBc BAA2 A6 | 
w:   |   | 
A2 efg2 feed dcd6  | z4 g2fe eddc d4 z2 | 
w:   |  Es ter *  gon  *  *  *  kal  | 
A4BB BAAG G^FG4z2  | cde^f g2=fe eddc dcBA G2 | 
w:  a sı  *  bre  *  dil *  ber_ a man   |  su *  *  *  ba *  *  şı  *  *  *  du  | 
d8dc B2B4AG  | G18 | z4^FG3A4a6  | agga g^ffg =fede dcBA B2 | 
w:  rak  *  *  *  *  a  |  man    |  Ke mi rir  gön  |  lü *  *  *  mü  *  bre  *  dil *  ber_ a man   | 
d4dc BcB3AA6  | B3/2A/B2 z4 z4 z4 z2 | \
w:  bir  sin *  *  *  si  *  fi  |  rak    | 
z4^FG3A4a6  | agga g^ffg =fede dcBA B2 | 
w:  Ke mi rir  gön  |  lü *  *  *  mü  *  bre  *  dil *  ber_ a man   | 
d4dc BcB3AA6  | A2ef g2fe eddc d6 | z4g2 feed dcd4z2  | 
w:  bir  sin *  *  *  si  *  fi  |  rak   SAZ  |  Gö nül  *  yâr  *  *  *  pe  | 
A4 BBBA AGG^F G4 z2 | cd e^fg2 =feed dcdc BAG2  | 
w:  şin de  *  bre  *  dil *  ber_ a man   |  yâr  *  *  *  on *  *  dan  *  *  *  ı  | 
d8 dcB2 B4 AG | G18  | z4 ^F2G2 AA3 a6 | \
w:  rak  *  *  *  *  a  |  man    |  Ak ma  Tu na   | 
ag2ag^f fg=fe dedc BAB2  | 
w:  ak *  *  ma  *  bre  *  şa *  hin_ a man   | 
d4 dcBc B3A A6 | B3/2A/ B2z4z4z4z2  | \
w:  ben  bir  *  *  *  dert *  li  |  yim    | 
z4 ^F2G2 A4 a6 | ag2ag^f fg=fe dedc BAB2  | 
w:  Yâr  pe şin de   |  a man  *  ge *  zer  *  ko *  *  *  şar   | 
d2d2 dcBc B3A A6 | A6 ABAG ^FGAB cABG  | 
w:  yan dım  ka *  ra  *  baht *  lı  |  yım   SAZ  | 
A2z2 ^F2G2 AA3 a6 | a18  | ag2a g^ffg =fede dcBA B2 | 
w:  *  Ak ma  Tu na   |   |  ak *  *  ma  *  bre  *  şa *  hin_ a man   | 
d4dc BcB3AA6  | B3/2A/B2 z4 z4 z4 z2 | \
w:  ben  bir  *  *  *  dert *  li  |  yim    | 
z4^F2 G2A4a6  | ag2a g^ffg =fede dcBA B2 | 
w:  Yâr  pe şin de   |  a man  *  ge *  zer  *  ko *  *  *  şar   | 
d2 d2dc BcB3AA6  | A18 | |


